X:1
T:Title
%%score { ( 1 3 ) | ( 2 4 ) }
L:1/8
M:6/8
K:G
V:1 treble nm="Grand Piano"
V:3 treble 
V:2 bass 
V:4 bass 
V:1
 z3 z2[Q:1/4=81] D | GGG D2 G |[M:7/8] BAG d3 e |[M:3/4] dB GG FG | [FA]4- [FA]D | GG G D2 G | %6
[M:15/16] [DB][CDA]/-[CDA]/[B,DG] [B,Gd]3 [Ge]3/2 |[M:3/4] [Gd][GB] [B,DG][B,DG] [DGB][CFA] | %8
[M:5/8] [B,G]-[B,G]- [B,G]3 |[M:1/8] B |[M:3/4] d4 z2 | [GB]6 | G4 z2 | D6 | B4 z2 | d6 | A4 z2 | %17
[M:5/8] [B,G]-[B,G]- [B,G]3 |] %18
V:2
 z3 z2 [G,B,] | [G,B,D][G,B,D][G,B,D] [G,B,]2[K:treble] [G,B,D] | %2
[M:7/8] [G,DG][G,CF][G,B,] [G,B,G]3 [G,CG] | %3
[M:3/4] [G,B,G][G,DG][K:bass] [G,B,D][E,B,E] [E,B,E][E,B,E] | [D,D]4- [D,D][G,B,] | %5
 [G,B,D][G,B,D] [G,B,D] [G,B,]2 [G,B,D] |[M:15/16] [G,,G,]G,,/-G,,/G,, G,,3 [C,C]3/2 | %7
[M:3/4] [D,B,][D,G,] D,D, D,D, |[M:5/8] G,-G,- G,3 |[M:1/8][K:treble] G |[M:3/4] B4 z2[K:bass] | %11
 G,G, G, G,2 E | E4 z2 | G,,G,, G,, G,,2[K:treble] D | D4 z2 | [G,G]2 z2 z2[K:bass] | C4 z2 | %17
[M:5/8] G,2 G, G,2 |] %18
V:3
 x6 | x6 |[M:7/8] x7 |[M:3/4] x6 | x6 | x6 |[M:15/16] x15/2 |[M:3/4] x6 |[M:5/8] x5 |[M:1/8] x | %10
[M:3/4] z2 DD [DGB][DBd] | DD D D2 G | z2 CC [C^DF][CEG] | B,G, G, G,2 G | z2 GG AG | z2 G G2 G | %16
 z2 FF [DGB][CFA] |[M:5/8] D2 D D2 |] %18
V:4
 x6 | x5[K:treble] x |[M:7/8] x7 |[M:3/4] x2[K:bass] x4 | x6 | x6 |[M:15/16] x15/2 |[M:3/4] x6 | %8
[M:5/8] x5 |[M:1/8][K:treble] x |[M:3/4] z2 G,G, G,[K:bass]G, | x6 | z2 C,C, C,C, | %13
 x5[K:treble] x | z2 G,G, [G,CG][G,B,] | B,2- [G,B,-] [G,B,]2[K:bass] B, | z2 D,D, D,D, | %17
[M:5/8] x5 |] %18

